!!!OTL: Abschied von Insbruck
!!!ARE: Europa, Mitteleuropa, Deutschland
!!!SCT: A0254A
!!!YEM: Copyright 1995, estate of Helmut Schaffrath.
**kern
*ICvox
*Ivox
!! Mixed meters:  6/2; 4/2
*M6/2
*k[b-]
*F:
{1f
=1
2f
2g
1a
1cc
=2
1b-
1a
2r}
{2a
=3
2.cc
4b-
1g
1a
=4
1f
1e
2r}
{2f
=5
*M4/2
2g
2f
2e
2f
=6
1g
2r}
{2g
=7
*M6/2
2f
2g
1a
1cc
=8
1b-
1a
2r}
{2a
=9
2.cc
4b-
1g
1a
=10
1f
1e
2r}
{2e
=11
*M4/2
2f
2g
1a
=12
2.b-
4a
4g
4f
2g
=13
4a
4f
1f
2e
=14
1f}
==
!!!AGN: Romanze, Ballade, Lied
!!!ONB: ESAC (Essen Associative Code) Database: ALTDEU
!!!AMT: irregular
!!!AIN: vox
!!!EED: Helmut Schaffrath
!!!EEV: 1.0
*-
